logo/teamgrid.svg

<?xml version="1.0" encoding="UTF-8"?>
<svg width="256px" height="163px" viewBox="0 0 256 163" version="1.1" xmlns="http://www.w3.org/2000/svg" xmlns:xlink="http://www.w3.org/1999/xlink" preserveAspectRatio="xMidYMid">
    <g>
        <path d="M0,137.5065 L26.771,115.9075 L26.771,46.8495 L0,30.1175 L0,137.5065 Z M43.5033,8.8223 L43.5033,153.1743 L73.4693,127.9243 L73.4693,34.6813 L43.5033,8.8223 Z M90.0486,0 L90.0486,162.757 L120.0136,132.031 L120.0136,30.27 L90.0486,0 Z M229.2291,46.8495 L229.2291,115.9075 L256.0001,137.5065 L256.0001,30.1175 L229.2291,46.8495 Z M212.4967,8.8223 L212.4967,153.1743 L182.5307,127.9243 L182.5307,34.6813 L212.4967,8.8223 Z M165.951,0 L135.985,30.27 L135.985,132.031 L165.951,162.757 L165.951,0 Z" fill="#3C7DD0"></path>
    </g>
</svg>

<svg viewBox="0 0 256 163" xmlns="http://www.w3.org/2000/svg"><path fill="#3C7DD0" d="M0 137.5l26.771-21.6V46.84L0 30.1v107.38ZM43.5 8.81v144.35l29.966-25.25V34.667L43.5 8.8ZM90.04-.02v162.757L120 132.011V30.241L90.03-.03Zm139.18 46.84v69.05l26.77 21.59V30.07L229.21 46.8ZM212.48 8.79v144.35l-29.97-25.25V34.64l29.96-25.86ZM165.93-.04l-29.97 30.27v101.76l29.96 30.726V-.05Z"/></svg>
